packages/uikit/src/assets/morpho-horizontal-lite.svg

<svg width="149" height="24" viewBox="0 0 149 24" fill="none" xmlns="http://www.w3.org/2000/svg">
<path opacity="0.8" d="M3.03906 16.3086V23.2942C3.03906 23.7243 3.40301 23.9028 3.51623 23.9433C3.62946 23.992 4.00957 24.0975 4.34924 23.7811L9.6339 18.7025C10.0839 18.2701 10.5183 17.8155 10.8447 17.2836C10.9983 17.0336 11.062 16.8928 11.062 16.8928C11.3855 16.2356 11.3855 15.6027 11.07 14.9699C10.6011 14.0287 9.40402 13.0713 7.60042 12.1626L4.5191 13.8827C3.60522 14.4019 3.03906 15.3188 3.03906 16.3086Z" fill="currentColor" fill-opacity="0.95"/>
<path d="M0 0.771269V8.09772C0 9.01454 0.614669 9.82587 1.48814 10.0855C4.46438 10.9455 9.64851 12.7954 10.9021 15.5134C11.0638 15.8704 11.1608 16.2193 11.1934 16.5844C12.0264 15.0672 12.4065 13.3228 12.2286 11.554C11.9858 9.04698 10.6594 6.7671 8.58908 5.31479L1.20507 0.146532C1.07565 0.0491705 0.92199 0.000488281 0.76833 0.000488281C0.638914 0.000488281 0.525689 0.0248294 0.404383 0.0897373C0.161742 0.227666 0 0.479187 0 0.771269Z" fill="currentColor" fill-opacity="0.95"/>
<path opacity="0.8" d="M22.6943 16.3086V23.2942C22.6943 23.7243 22.3305 23.9028 22.2171 23.9433C22.104 23.992 21.7237 24.0975 21.3841 23.7811L15.9764 18.5844C15.6084 18.2306 15.2568 17.8564 14.9796 17.4277C14.76 17.0883 14.6714 16.8928 14.6714 16.8928C14.3479 16.2356 14.3479 15.6027 14.6632 14.9699C15.1323 14.0287 16.3294 13.0713 18.1327 12.1626L21.2142 13.8827C22.1363 14.4019 22.6943 15.3188 22.6943 16.3086Z" fill="currentColor" fill-opacity="0.95"/>
<path d="M25.7384 0.770781V8.09722C25.7384 9.01404 25.1235 9.82537 24.25 10.085C21.2739 10.945 16.0898 12.7949 14.8362 15.5129C14.6743 15.8699 14.5772 16.2188 14.5449 16.5839C13.712 15.0667 13.3319 13.3223 13.5098 11.5536C13.7522 9.04648 15.0786 6.76662 17.1493 5.31432L24.5333 0.146041C24.6627 0.0486794 24.8163 0 24.9699 0C25.0993 0 25.2126 0.024341 25.3337 0.0892489C25.5764 0.227177 25.7384 0.478696 25.7384 0.770781Z" fill="currentColor" fill-opacity="0.95"/>
<path d="M35.3867 3.26599H37.7424L43.2018 15.8935H43.3636L48.8231 3.26599H51.1383V17.8245H49.4195V6.23836H49.2578L44.2533 17.8245H42.2717L37.2672 6.23836H37.1054V17.8245H35.3867V3.26599Z" fill="currentColor"/>
<path d="M53.0366 12.6785C53.0366 9.20062 55.1496 7.2797 58.2837 7.2797C61.4078 7.2797 63.5309 9.20062 63.5309 12.6785C63.5309 16.1463 61.4078 18.0672 58.2837 18.0672C55.1496 18.0672 53.0366 16.1463 53.0366 12.6785ZM54.8362 12.6785C54.8362 15.2262 56.2213 16.6113 58.2837 16.6113C60.3361 16.6113 61.7212 15.2262 61.7212 12.6785C61.7212 10.1206 60.3361 8.74567 58.2837 8.74567C56.2213 8.74567 54.8362 10.1206 54.8362 12.6785Z" fill="currentColor"/>
<path d="M65.2302 7.52235H66.9489V8.75578H67.1107C67.4645 8.02785 68.1116 7.48191 69.6584 7.48191H71.094V9.01864H69.6988C67.7678 9.01864 67.0096 10.0802 67.0096 12.173V17.8245H65.2302V7.52235Z" fill="currentColor"/>
<path d="M72.4629 21.8686V7.52235H74.2018V8.94787H74.3636C75.1319 7.75488 76.3856 7.28981 77.8414 7.28981C80.5206 7.28981 82.573 9.10963 82.573 12.6785C82.573 16.2373 80.5206 18.0571 77.8414 18.0571C76.4159 18.0571 75.1724 17.6021 74.404 16.4597H74.2422V21.8686H72.4629ZM74.1816 12.6785C74.1816 15.1757 75.5161 16.581 77.4775 16.581C79.4489 16.581 80.7835 15.1757 80.7835 12.6785C80.7835 10.1712 79.4489 8.76589 77.4775 8.76589C75.5161 8.76589 74.1816 10.1712 74.1816 12.6785Z" fill="currentColor"/>
<path d="M84.2767 3.26599H86.056V8.79622H86.2178C86.9558 7.70433 88.1792 7.28981 89.6249 7.28981C92.021 7.28981 93.5375 8.50303 93.5375 11.0204V17.8245H91.7581V11.1923C91.7581 9.51404 90.8381 8.776 89.2306 8.776C87.4715 8.776 86.056 9.81734 86.056 12.0719V17.8245H84.2767V3.26599Z" fill="currentColor"/>
<path d="M95.1381 12.6785C95.1381 9.20062 97.2511 7.2797 100.385 7.2797C103.509 7.2797 105.632 9.20062 105.632 12.6785C105.632 16.1463 103.509 18.0672 100.385 18.0672C97.2511 18.0672 95.1381 16.1463 95.1381 12.6785ZM96.9377 12.6785C96.9377 15.2262 98.3228 16.6113 100.385 16.6113C102.438 16.6113 103.823 15.2262 103.823 12.6785C103.823 10.1206 102.438 8.74567 100.385 8.74567C98.3228 8.74567 96.9377 10.1206 96.9377 12.6785Z" fill="currentColor"/>
<path d="M113.546 3.672H115.377V16.398H123.337V18H113.546V3.672ZM125.319 7.86095H127.07V18H125.319V7.86095ZM125.189 6.12965V4.2093H127.219V6.12965H125.189ZM128.869 7.86095H131.267V5.07495H133.018V7.86095H136.053V9.2838H133.018V16.3284L133.177 16.4876H136.023V18H133.874C132.212 18 131.267 17.1741 131.267 15.5224V9.2838H128.869V7.86095ZM137.382 12.9255C137.382 9.4828 139.293 7.62215 142.298 7.62215C145.313 7.62215 146.974 9.5027 146.974 12.4877V13.3633H139.074C139.114 15.4727 140.328 16.8259 142.298 16.8259C144.168 16.8259 145.034 15.7612 145.193 14.826H146.765V15.1245C146.536 16.3682 145.362 18.2388 142.318 18.2388C139.313 18.2388 137.382 16.3782 137.382 12.9255ZM139.104 11.9802H145.303C145.283 10.2489 144.258 9.0251 142.288 9.0251C140.357 9.0251 139.243 10.2689 139.104 11.9802Z" fill="currentColor" fill-opacity="0.5"/>
</svg>

<svg xmlns="http://www.w3.org/2000/svg" width="149" height="24" fill="currentColor" xmlns:v="https://vecta.io/nano"><path opacity=".8" d="M3.039 16.309v6.986c0 .43.364.609.477.649a.78.78 0 0 0 .833-.162l5.285-5.079c.45-.432.884-.887 1.211-1.419l.217-.391c.324-.657.324-1.29.008-1.923-.469-.941-1.666-1.899-3.47-2.807l-3.081 1.72c-.914.519-1.48 1.436-1.48 2.426z" fill-opacity=".95" fill="currentColor"/><path d="M0 .771v7.326c0 .917.615 1.728 1.488 1.988 2.976.86 8.16 2.71 9.414 5.428.162.357.259.706.291 1.071.833-1.517 1.213-3.262 1.035-5.03a8.64 8.64 0 0 0-3.64-6.239L1.205.147C1.076.049.922 0 .768 0A.73.73 0 0 0 .404.09C.162.228 0 .479 0 .771z" fill-opacity=".95" fill="currentColor"/><path opacity=".8" d="M22.694 16.309v6.986c0 .43-.364.609-.477.649a.78.78 0 0 1-.833-.162l-5.408-5.197c-.368-.354-.72-.728-.997-1.157-.22-.339-.308-.535-.308-.535-.324-.657-.324-1.29-.008-1.923.469-.941 1.666-1.899 3.47-2.807l3.082 1.72c.922.519 1.48 1.436 1.48 2.426z" fill-opacity=".95" fill="currentColor"/><path d="M25.738.771v7.326c0 .917-.615 1.728-1.488 1.988-2.976.86-8.16 2.71-9.414 5.428a3.25 3.25 0 0 0-.291 1.071c-.833-1.517-1.213-3.262-1.035-5.03.242-2.507 1.569-4.787 3.64-6.239L24.533.146c.129-.097.283-.146.437-.146a.73.73 0 0 1 .364.089c.243.138.405.389.405.682z" fill-opacity=".95" fill="currentColor"/><path d="M35.387 3.266h2.356l5.459 12.628h.162l5.459-12.628h2.315v14.559H49.42V6.238h-.162l-5.004 11.586h-1.982L37.267 6.238h-.162v11.586h-1.719V3.266zm17.65 9.413c0-3.478 2.113-5.399 5.247-5.399 3.124 0 5.247 1.921 5.247 5.399 0 3.468-2.123 5.389-5.247 5.389-3.134 0-5.247-1.921-5.247-5.389zm1.8 0c0 2.548 1.385 3.933 3.448 3.933 2.052 0 3.438-1.385 3.438-3.933 0-2.558-1.385-3.933-3.437-3.933-2.062 0-3.448 1.375-3.448 3.933zM65.23 7.522h1.719v1.233h.162c.354-.728 1.001-1.274 2.548-1.274h1.436v1.537H69.7c-1.931 0-2.689 1.062-2.689 3.154v5.652H65.23V7.522zm7.233 14.347V7.522h1.739v1.426h.162c.768-1.193 2.022-1.658 3.478-1.658 2.679 0 4.732 1.82 4.732 5.389 0 3.559-2.052 5.379-4.732 5.379-1.425 0-2.669-.455-3.437-1.597h-.162v5.409h-1.779zm1.719-9.19c0 2.497 1.334 3.903 3.296 3.903 1.971 0 3.306-1.405 3.306-3.902 0-2.507-1.335-3.913-3.306-3.913-1.961 0-3.296 1.405-3.296 3.913zm10.095-9.413h1.779v5.53h.162c.738-1.092 1.961-1.506 3.407-1.506 2.396 0 3.913 1.213 3.913 3.731v6.804h-1.779v-6.632c0-1.678-.92-2.416-2.528-2.416-1.759 0-3.175 1.041-3.175 3.296v5.753h-1.779V3.266zm10.861 9.413c0-3.478 2.113-5.399 5.247-5.399 3.124 0 5.247 1.921 5.247 5.399 0 3.468-2.123 5.389-5.247 5.389-3.134 0-5.247-1.921-5.247-5.389zm1.8 0c0 2.548 1.385 3.933 3.447 3.933 2.053 0 3.438-1.385 3.438-3.933 0-2.558-1.385-3.933-3.438-3.933-2.062 0-3.447 1.375-3.447 3.933z" fill="currentColor"/><path d="M113.546 3.672h1.831v12.726h7.96V18h-9.791V3.672zm11.773 4.189h1.751V18h-1.751V7.861zm-.13-1.731v-1.92h2.03v1.92h-2.03zm3.68 1.731h2.398V5.075h1.751v2.786h3.035v1.423h-3.035v7.045l.159.159h2.846V18h-2.149c-1.662 0-2.607-.826-2.607-2.478V9.284h-2.398V7.861zm8.513 5.065c0-3.443 1.911-5.303 4.916-5.303 3.015 0 4.676 1.881 4.676 4.866v.876h-7.9c.04 2.109 1.254 3.463 3.224 3.463 1.87 0 2.736-1.065 2.895-2h1.572v.298c-.229 1.244-1.403 3.114-4.447 3.114-3.005 0-4.936-1.861-4.936-5.313zm1.722-.945h6.199c-.02-1.731-1.045-2.955-3.015-2.955-1.931 0-3.045 1.244-3.184 2.955z" fill-opacity=".5" fill="currentColor"/></svg>
